www/assets/icons/bluetooth.svg

<svg width="24" height="24" viewBox="0 0 24 24" xmlns="http://www.w3.org/2000/svg" fill='currentColor'><path d="M18.355 7.71L12.645 2H11.645V9.59L7.05502 5L5.64502 6.41L11.235 12L5.64502 17.59L7.05502 19L11.645 14.41V22H12.645L18.355 16.29L14.055 12L18.355 7.71ZM13.645 5.83L15.525 7.71L13.645 9.59V5.83ZM15.525 16.29L13.645 18.17V14.41L15.525 16.29Z"/></svg>

<svg xmlns="http://www.w3.org/2000/svg" width="24" height="24" viewBox="0 0 24 24" fill='currentColor'><path d="M18.355 7.71 12.645 2h-1v7.59L7.055 5l-1.41 1.41 5.59 5.59-5.59 5.59L7.055 19l4.59-4.59V22h1l5.71-5.71-4.3-4.29zm-4.71-1.88 1.88 1.88-1.88 1.88zm1.88 10.46-1.88 1.88v-3.76z"/></svg>
